X:1
T:Title
L:1/4
Q:1/4=129
M:3/4
I:linebreak $
K:Eb
V:1 treble nm="Church Organ, Staff"
V:1
 E E2 | F G2 | A G2 | F E2 | E B2 | B B c | d e2 | e e2 | B e2 | e d2 | B c2 | c B2 | A B2 |$ %13
w: By~Variation~of~Puer~nobis~nascitur *|||||||||||||
 G F2 | G E2 | D E2 |] %16
w: |||
